!!!COM: Palestrina, Giovanni Perluigi da
!!!OPR: Missa In minoribus duplicibus
!!!OTL: Agnus I
**kern	**kern	**kern	**kern
*Ibass	*Itenor	*Icalto	*Icant
!Bassus	!Tenor	!Altus	!Cantus
*clefF4	*clefGv2	*clefG2	*clefG2
*k[]	*k[]	*k[]	*k[]
*?:X	*?:X	*?:X	*?:X
*M4/2	*M4/2	*M4/2	*M4/2
=1	=1	=1	=1
0r	0r	1f	0r
.	.	1g	.
=2	=2	=2	=2
0r	0r	1g	1r
.	.	1a	1cc
=3	=3	=3	=3
0r	0r	2g	1dd
.	.	4f#	.
.	.	4e	.
.	.	2f#	1dd
.	.	2g	.
=4	=4	=4	=4
0r	0r	4c	1ee
.	.	4d	.
.	.	4e	.
.	.	4f	.
.	.	2g	2dd
.	.	[2a	4cc
.	.	.	4b
=5	=5	=5	=5
1F	0r	4a]	2cc
.	.	4g	.
.	.	2f	2.dd
1G	.	2.e	.
.	.	.	4cc
.	.	.	[2cc
.	.	8d	.
.	.	8c	.
=6	=6	=6	=6
1G	1r	2d	2cc]
.	.	1e	2b
1A	1c	.	1cc
.	.	4d	.
.	.	4c	.
=7	=7	=7	=7
2G	1d	2B	0r
4F#	.	4A	.
4E	.	4G	.
2F#	1d	2A	.
2G	.	2B	.
=8	=8	=8	=8
4C	1e	2c	0r
4D	.	.	.
4E	.	1g	.
4F	.	.	.
2G	2d	.	.
[2A	4c	2e	.
.	4B	.	.
=9	=9	=9	=9
2A]	2c	2f	1r
2G	2.d	2g	.
2.F	.	2.a	1cc
.	4c	.	.
.	[2c	.	.
4E	.	4g	.
=10	=10	=10	=10
1D	2c]	2f	1dd
.	2B	2d	.
[1C	2.c	1g	1ee
.	4d	.	.
=11	=11	=11	=11
1C]	1e	2r	1gg
.	.	2g	.
1r	1d	2a	1ff
.	.	2b	.
=12	=12	=12	=12
0r	2r	1cc	2ee
.	2c	.	2.gg
.	1d	1a	.
.	.	.	4ff
.	.	.	2ff
=13	=13	=13	=13
0r	1e	2g	1ee
.	.	1cc	.
.	[1g	.	1dd
.	.	2b	.
=14	=14	=14	=14
1C	1g]	2.cc	1ee
.	.	4b	.
1D	1f	4a	2r
.	.	4g	.
.	.	2a	[2dd
=15	=15	=15	=15
1E	1.e	0g	2dd]
.	.	.	1cc
1G	.	.	.
.	4d	.	2b
.	4c	.	.
=16	=16	=16	=16
2F	2d	0r	2a
2E	1e	.	2g
2F	.	.	2a
2G	2d	.	2b
=17	=17	=17	=17
2C	1e	1c	1cc
1c	.	.	.
.	2r	1d	1g
2B	[2d	.	.
=18	=18	=18	=18
1A	4d]	1e	1a
.	4c	.	.
.	2c	.	.
1G	2d	1g	1b
.	2G	.	.
=19	=19	=19	=19
1D	0A	1f	1dd
1r	.	[1e	1cc
=20	=20	=20	=20
1r	1G	2e]	1b
.	.	4d	.
.	.	4c	.
2r	1r	2d	2a
2G	.	[2e	2g
=21	=21	=21	=21
2A	0r	2e]	1f
2B	.	2d	.
2.c	.	[1e	2e
.	.	.	2g
4B	.	.	.
=22	=22	=22	=22
4A	1c	2e]	1a
4G	.	.	.
2A	.	2f	.
2G	1d	1g	2b
2B	.	.	[2dd
=23	=23	=23	=23
1A	1e	2r	2dd]
.	.	2c	1cc
2.G	[1g	1d	.
.	.	.	2b
4F	.	.	.
=24	=24	=24	=24
1E	1g]	1e	4g
.	.	.	4a
.	.	.	4b
.	.	.	4cc
[1D	2.f	1a	4dd
.	.	.	4cc
.	.	.	4dd
.	4e	.	4ee
=25	=25	=25	=25
2D]	2d	2a	2ff
2C#	2e	2a	1ee
1D	1f	2a	.
.	.	2b	2dd
=26	=26	=26	=26
0A	0e	1cc	2ee
.	.	.	1ee
.	.	2r	.
.	.	2a	2cc
=27	=27	=27	=27
0r	0r	2f	1dd
.	.	2g	.
.	.	4c	2cc
.	.	4d	.
.	.	4e	[2b
.	.	4f	.
=28	=28	=28	=28
1r	0r	4g	4b]
.	.	4e	4cc
.	.	4f	4dd
.	.	4g	4b
2r	.	2.a	4cc
.	.	.	4dd
[2A	.	.	[2ee
.	.	8g	.
.	.	8f	.
=29	=29	=29	=29
2A]	0r	2e	2ee]
2F	.	2f	4dd
.	.	.	4cc
1G	.	4d	4b
.	.	4c	2cc
.	.	2d	.
.	.	.	4b
=30	=30	=30	=30
2.C	2r	1e	0cc
.	1e	.	.
4D	.	.	.
2E	.	2r	.
[2F	2c	[2a	.
=31	=31	=31	=31
2F]	1d	2a]	0r
2D	.	2f	.
1E	2c	1g	.
.	4B	.	.
.	4c	.	.
=32	=32	=32	=32
2D	4d	2f	0r
.	4B	.	.
1C	4c	4e	.
.	4d	4f	.
.	2e	4g	.
.	.	4e	.
2D	4d	2f	.
.	4c	.	.
=33	=33	=33	=33
2.E	2B	2g	0r
.	1c	2e	.
4F	.	.	.
1G	.	1d	.
.	2B	.	.
=34	=34	=34	=34
1C	2c	2.e	2r
.	1c	.	1ee
.	.	4f	.
1r	.	2g	.
.	2A	[2a	2cc
=35	=35	=35	=35
0r	2B	4a]	1dd
.	.	4g	.
.	2G	1g	.
.	1A	.	1cc
.	.	2f#	.
=36	=36	=36	=36
2r	0G	2g	2.b
1E	.	1g	.
.	.	.	4a
.	.	.	2b
2C	.	2e	2cc
=37	=37	=37	=37
1D	1r	1f	2a
.	.	.	2b
[1C	2r	2.e	2cc
.	[2e	.	[2gg
.	.	4d	.
=38	=38	=38	=38
1C]	2e]	4c	2gg]
.	.	8B	.
.	.	8A	.
.	2c	2G	2ee
1BB-	1d	1B-	1ff
=39	=39	=39	=39
1C	1c	2G	1ee
.	.	1g	.
2.G	1B	.	2.dd
.	.	2g	.
8F	.	.	4ee
8E	.	.	.
=40	=40	=40	=40
4D	1d	1.a	4ff
4E	.	.	4gg
4F	.	.	1ff
4G	.	.	.
4A	2.c	.	.
4F	.	.	.
4A	.	2a	[2ee
4B	4d	.	.
=41	=41	=41	=41
1c	1e	0g	4ee]
.	.	.	4dd
.	.	.	1cc
1G	1d	.	.
.	.	.	2b
=42	=42	=42	=42
0C	0c	0e	0cc
==	==	==	==
*-	*-	*-	*-
!!!CDT: 1525/^1526/-1594/2/2
!!!OCY: Italia
!!!AGN: Mass (Paraphrase)
!!!AST: renaissance, vocal
!!!ASW: Gregorian Mass
!!!PWK: Masses, Book 7
!!!RNB: Cadence finals: C,G,A,D
!!!YOR: Le Opere Complete, v. 23, p. 182
!!!YOO: Rome, Italy: Fratelli Scalera
!!!END: 1992//
!!!EED: John Miller
!!!YEC: Copyright 2000, John Miller
!!!YEN: United States of America
!!!YEM: Rights to all derivative electronic formats reserved.
!!!YEM: Refer to licensing agreement for further details.
!!!YEM: This file must be accompanied by the licensing agreement.
!!!YEM: A copy of the licensing agreement may be found at http://www.music-cog.ohio-state.edu/HumdrumDatabases/Palestrina/license.txt
!!!EMD: converted to Humdrum by Bret Aarden
